X: 634
T: Xiaoguafu shangfen
%%abc-version 2.0
%%abcx-abcm2ps-target-version 5.9.1 (29 Sep 2008)
%%abc-creator hum2abc beta
%%abcx-conversion-date 2013/10/02 07:52:30
%%abc-edited-by Helmut Schaffrath
%%humdrum-veritas 3665142971
%%humdrum-veritas-data 1575908601
%%continueall 1
%%barnumbers 0
L: 1/8
M: 2/4
K: A
A> B c c [I:setbarnb 1]| 
cB3 | 
e2c B | 
AF2B | 
AF2B | 
A4 | 
A> B c B | 
cB3 | 
e2A F | 
EC2F | 
E3F | 
E4 |]  



